src/cart/components/img/westside.svg

<svg height="17" viewBox="0 0 16 17" width="16" xmlns="http://www.w3.org/2000/svg"><g fill="none" fill-rule="evenodd"><rect fill="#11248a" height="16.61" rx="2" width="16"/><g fill="#29c24c"><path d="m3 12h2v4.61h-2z"/><path d="m11 12h2v4.61h-2z"/><path d="m7 12h2v4.61h-2z"/></g><path d="m4.92382812 10.234375c.06640659-.46875234.09960938-1.16991721.09960938-2.10351562 0-1.8593843-.08300698-3.21874571-.24902344-4.078125-.16601645-.8593793-.43066224-1.2890625-.79394531-1.2890625-.23437617 0-.46093641.12304564-.6796875.36914062s-.35546848.53124838-.41015625.85546875c-.16015705-.03515643-.24023438-.10546822-.24023438-.2109375 0-.39843949.19238089-.8134744.57714844-1.24511719.38476755-.43164278.75488104-.64746094 1.11035156-.64746094.3593768 0 .63183501.13769394.81738282.41308594.1855478.275392.346679.78222287.48339844 1.52050782.20703228 1.09766173.31054687 2.36327408.31054687 3.796875l.00585937.41015624.84375-1.640625.375-.72070312.54492188-1.07226562c.31250156-.60937805.52148385-1.09765442.62695312-1.46484376l.89648438-.85546874c-.02734389.29687648-.04101562.55078019-.04101562.76171874 0 .66406583.13476427 1.72460209.40429687 3.18164063l.0703125.38085937.1171875.609375c.07812539.41797084.15624961.86913821.23437505 1.35351563.1132818-.21093855.1835936-.34765594.2109374-.41015625l.4746094-.984375.5742188-1.16601562c.4765649-.9882862.7148437-1.75976286.7148437-2.31445313 0-.37500188-.1542953-.66015527-.4628906-.85546875l.8613281-.94335938c.3984395.26172006.5976563.57617004.5976563.94335938 0 .48828369-.4101522 1.53905443-1.2304688 3.15234375-.1367194.2695326-.3007803.59765432-.4921875.984375l-.2519531.515625-.2578125.59179687-.3398438.76171876c-.0273438.06640658-.0898432.22265501-.1875.46875l-.9023437.95507812-.0234375-.2578125c-.07812539-.8203166-.2246083-1.79101002-.43945312-2.91210938l-.0703125-.3515625-.09960938-.52148437c-.07421912-.37890814-.12304676-.65624912-.14648438-.83203125l-.11132812-.80273438c-.00781254-.05859404-.02734359-.19531142-.05859375-.41015624l-.79101563 1.5703125-.32226562.63867187c-.5898467 1.15625578-1.04101406 2.11913678-1.35351562 2.88867187z" fill="#fff"/></g></svg>

<?xml version="1.0" encoding="UTF-8"?>
<svg width="16px" height="17px" viewBox="0 0 16 17" version="1.1" xmlns="http://www.w3.org/2000/svg" xmlns:xlink="http://www.w3.org/1999/xlink">
    <!-- Generator: Sketch 48.2 (47327) - http://www.bohemiancoding.com/sketch -->
    <title>Group 5</title>
    <desc>Created with Sketch.</desc>
    <defs></defs>
    <g id="03_Cliq-&amp;-PiQ" stroke="none" stroke-width="1" fill="none" fill-rule="evenodd" transform="translate(-299.000000, -228.000000)">
        <g id="Map" transform="translate(0.000000, 10.000000)">
            <g id="Group-5" transform="translate(299.000000, 218.000000)">
                <rect id="Rectangle-11" fill="#11248A" x="0" y="0" width="16" height="16.6100001" rx="2"></rect>
                <rect id="Rectangle-11" fill="#29C24C" x="3" y="12" width="2" height="4.61000013"></rect>
                <rect id="Rectangle-11" fill="#29C24C" x="11" y="12" width="2" height="4.61000013"></rect>
                <rect id="Rectangle-11" fill="#29C24C" x="7" y="12" width="2" height="4.61000013"></rect>
                <path d="M4.92382812,10.234375 C4.99023471,9.76562266 5.0234375,9.06445779 5.0234375,8.13085938 C5.0234375,6.27147508 4.94043052,4.91211367 4.77441406,4.05273438 C4.60839761,3.19335508 4.34375182,2.76367188 3.98046875,2.76367188 C3.74609258,2.76367188 3.51953234,2.88671752 3.30078125,3.1328125 C3.08203016,3.37890748 2.94531277,3.66406088 2.890625,3.98828125 C2.73046795,3.95312482 2.65039062,3.88281303 2.65039062,3.77734375 C2.65039062,3.37890426 2.84277151,2.96386935 3.22753906,2.53222656 C3.61230661,2.10058378 3.9824201,1.88476562 4.33789062,1.88476562 C4.69726742,1.88476562 4.96972563,2.02245956 5.15527344,2.29785156 C5.34082124,2.57324356 5.50195244,3.08007443 5.63867188,3.81835938 C5.84570416,4.91602111 5.94921875,6.18163346 5.94921875,7.61523438 L5.95507812,8.02539062 L6.79882812,6.38476562 L7.17382812,5.6640625 L7.71875,4.59179688 C8.03125156,3.98241883 8.24023385,3.49414246 8.34570312,3.12695312 L9.2421875,2.27148438 C9.21484361,2.56836086 9.20117188,2.82226457 9.20117188,3.03320312 C9.20117188,3.69726895 9.33593615,4.75780521 9.60546875,6.21484375 L9.67578125,6.59570312 L9.79296875,7.20507812 C9.87109414,7.62304896 9.94921836,8.07421633 10.0273438,8.55859375 C10.1406256,8.3476552 10.2109374,8.21093781 10.2382812,8.1484375 L10.7128906,7.1640625 L11.2871094,5.99804688 C11.7636743,5.00976068 12.0019531,4.23828402 12.0019531,3.68359375 C12.0019531,3.30859187 11.8476578,3.02343848 11.5390625,2.828125 L12.4003906,1.88476562 C12.7988301,2.14648568 12.9980469,2.46093566 12.9980469,2.828125 C12.9980469,3.31640869 12.5878947,4.36717943 11.7675781,5.98046875 C11.6308587,6.25000135 11.4667978,6.57812307 11.2753906,6.96484375 L11.0234375,7.48046875 L10.765625,8.07226562 L10.4257812,8.83398438 C10.3984374,8.90039096 10.335938,9.05663939 10.2382812,9.30273438 L9.3359375,10.2578125 L9.3125,10 C9.23437461,9.1796834 9.0878917,8.20898998 8.87304688,7.08789062 L8.80273438,6.73632812 L8.703125,6.21484375 C8.62890588,5.83593561 8.58007824,5.55859463 8.55664062,5.3828125 L8.4453125,4.58007812 C8.43749996,4.52148408 8.41796891,4.3847667 8.38671875,4.16992188 L7.59570312,5.74023438 L7.2734375,6.37890625 C6.6835908,7.53516203 6.23242344,8.49804303 5.91992188,9.26757812 L4.92382812,10.234375 Z" id="W" fill="#FFFFFF"></path>
            </g>
        </g>
    </g>
</svg>
